X: 13369
T: Fleadh At Tulla, The
R: jig
M: 6/8
K: Amixolydian
|:efg fed|e2A AGA|Bcd eed|eaa a2a|
efg fed|e2A AGA|Bcd efe|1 d2d dcd:|2 d2f aag||
f2f fdf|g2g ggf|eaf gec|d2f A2G|
FAd fdf|a2a afd|eaf gec|d3 d2e|
f2f fdf|a2a afd|eaf gec|d2f A2G|
FAd fdf|a2a afd|eaf gec|d3 dcd||

